icons/poison_fill.svg

<svg width="48" height="48" viewBox="0 0 48 48" fill="none" xmlns="http://www.w3.org/2000/svg">
<path fill-rule="evenodd" clip-rule="evenodd" d="M18 4C17.4477 4 17 4.44772 17 5V9C17 9.55228 17.4477 10 18 10H20V14C16.134 14 13 17.134 13 21V41C13 42.6569 14.3431 44 16 44H32C33.6569 44 35 42.6569 35 41V21C35 17.134 31.866 14 28 14V10H30C30.5523 10 31 9.55228 31 9V5C31 4.44772 30.5523 4 30 4H18ZM22 15V10H26V15C26 15.5523 26.4477 16 27 16H28C30.419 16 32.4367 17.7178 32.9 20H15.1C15.5633 17.7178 17.581 16 20 16H21C21.5523 16 22 15.5523 22 15ZM28.2427 30.5356L27.536 29.8289L25.4142 31.9507L27.5356 34.072L28.2426 33.3649L29.6568 34.7791L26.8284 37.6076L25.4142 36.1934L26.1213 35.4862L24 33.3649L21.8791 35.4859L22.5859 36.1927L21.1717 37.6069L20.4648 36.9001L20.4645 36.9005L19.0502 35.4863L19.0506 35.4859L18.3432 34.7785L19.7574 33.3643L20.4648 34.0717L22.5858 31.9507L20.4644 29.8293L19.7574 30.5363L18.3431 29.1221L19.0502 28.415L20.4644 27.0008L21.1716 26.2936L22.5858 27.7079L21.8786 28.415L24 30.5365L26.1218 28.4147L25.4143 27.7072L26.8285 26.293L29.6569 29.1214L28.2427 30.5356Z" fill="black"/>
</svg>

<svg
  xmlns="http://www.w3.org/2000/svg"
  width="24"
  height="24"
  viewBox="0 0 24 24"
  fill="none"
  stroke="currentColor"
  stroke-width="2"
  stroke-linecap="round"
  stroke-linejoin="round"
>
  <path
    fill-rule="evenodd"
    d="M18 4a1 1 0 0 0-1 1v4a1 1 0 0 0 1 1h2v4a7 7 0 0 0-7 7v20a3 3 0 0 0 3 3h16a3 3 0 0 0 3-3V21a7 7 0 0 0-7-7v-4h2a1 1 0 0 0 1-1V5a1 1 0 0 0-1-1zm4 11v-5h4v5a1 1 0 0 0 1 1h1a5 5 0 0 1 4.9 4H15.1a5 5 0 0 1 4.9-4h1a1 1 0 0 0 1-1m6.243 15.536-.707-.707-2.122 2.122 2.122 2.121.707-.707 1.414 1.414-2.829 2.829-1.414-1.415.707-.707L24 33.365l-2.12 2.12.706.708-1.414 1.414-.707-.707-1.415-1.414-.707-.707 1.414-1.415.708.708 2.12-2.121-2.12-2.122-.708.707-1.414-1.414.707-.707 1.414-1.414.708-.707 1.414 1.414-.707.707L24 30.537l2.122-2.122-.708-.708 1.414-1.414 2.829 2.828z"
    clip-rule="evenodd"
  />
</svg>
